X: 20
T: Money Musk
T: Sir Archibald Grant of Monemusk's reel
C: Daniel Down (1732-1783)
R: strathspey
M: C|
L: 1/8
N: This tune is an import from Scotland. It had been widely published and is still played.
N: The  tune was composed by Perthshire fiddler Donald (or Daniel) Dow (1732-83) and first
N: published by him around 1776.  See John Peacock's tune book for a better local version.
Z: 2010 John Chambers <jc:trillian.mit.edu>
B: Anonymous manuscript tune book (1800-1840) p.42
F: http://www.asaplive.com/archive/browse_by_collection.asp
N: The asaplive.com web site is complex, and links to its files don't usually work.
K: G
e |\
d>GB>G d>Gc>e | d>GB>G AB/A/ c>e | d>GB>G Bc/d/ d>g | e>cA>c B>GG :|
|: e/f/ |\
g>dB>d d>gB>g | g>dc>gB>gA>g | g>dB>g d>gB>g | e>cA>c BGGf |
g>dB>g d>gB>g | g>dc>g B>gA>f | g>dB>g d>gB>g | ecAd BGG :|


%%sep 5 1 500

